static/data/images/sponsors/superlist.svg

<svg viewBox="0 0 143 34" xmlns="http://www.w3.org/2000/svg">
<g  stroke="none" stroke-width="1" fill="none" fill-rule="evenodd">
          <path d="M65.2617842,11.7293 C66.0485842,10.262 67.2434842,9.05397 68.7020842,8.2512 C70.1754842,7.43281 71.8815842,7.02362 73.8202842,7.02362 C75.7848842,7.02362 77.5162842,7.40755 79.0143842,8.17542 C80.4694842,8.90403 81.6878842,10.0307 82.5278842,11.4245 C83.3697842,12.8222 83.8042842,14.4654 83.8313365,16.3542 C83.8337842,16.8385 83.8030842,17.3223 83.7394842,17.8024 C83.7256842,17.904 83.6753842,17.9971 83.5978842,18.0642 C83.5203842,18.1313 83.4209842,18.1679 83.3184842,18.167 L69.5877842,18.167 L69.5877842,18.3185 C69.7134842,19.7291 70.1667842,20.8371 70.9475842,21.6426 C71.7283842,22.448 72.7984842,22.8511 74.1579842,22.8516 C75.2406842,22.8516 76.1410842,22.6187 76.8589842,22.1528 C77.4970842,21.7384 77.9686842,21.1124 78.1909842,20.3847 C78.2176842,20.2998 78.2705842,20.2255 78.3420842,20.1725 C78.4136842,20.1196 78.5001842,20.0907 78.5891842,20.09 L83.0153842,20.09 C83.0786842,20.0898 83.1412842,20.1039 83.1983842,20.1312 C83.2554842,20.1586 83.3056842,20.1985 83.3452842,20.2479 C83.3848842,20.2974 83.4127842,20.3551 83.4268842,20.4168 C83.4410842,20.4785 83.4411842,20.5427 83.4270842,20.6044 C83.1896842,21.6824 82.7207842,22.6959 82.0529842,23.5749 C81.2721842,24.6082 80.2396842,25.4204 78.9554842,26.0115 C77.6711842,26.6025 76.1979842,26.8984 74.5359842,26.8989 C72.3693842,26.8989 70.4993842,26.4959 68.9259842,25.6899 C67.3967842,24.9265 66.1330842,23.72 65.2996842,22.2277 C64.4577842,20.7302 64.0367789,18.9862 64.0367789,16.9958 C64.0350842,14.9829 64.4433842,13.2275 65.2617842,11.7293 Z M78.5024842,14.6947 C78.3256842,13.5109 77.8406842,12.598 77.0475842,11.9558 C76.2543842,11.3137 75.2535842,10.9926 74.0450842,10.9926 C72.8865842,10.9926 71.9107842,11.3263 71.1176842,11.9937 C70.3244842,12.6611 69.8521842,13.5614 69.7005842,14.6947 L78.5024842,14.6947 Z"></path>
          <path d="M40.2875842,7.25262 L35.8033842,7.25262 C35.6916842,7.25262 35.5845842,7.29698 35.5056842,7.37593 C35.4266842,7.45488 35.3823842,7.56195 35.3823842,7.6736 L35.3823842,16.8097 C35.3823842,18.598 35.0174842,19.9895 34.2877842,20.9841 C33.5580842,21.9788 32.5252842,22.4775 31.1893842,22.4803 C29.9056842,22.4803 28.9550842,22.0332 28.3376842,21.1391 C27.7202842,20.2449 27.4114842,18.9166 27.4114842,17.1541 L27.4114842,7.6736 C27.4114842,7.56195 27.3671842,7.45488 27.2881842,7.37593 C27.2092842,7.29698 27.1021842,7.25262 26.9905842,7.25262 L22.5070842,7.25262 C22.3954842,7.25262 22.2883842,7.29698 22.2094842,7.37593 C22.1304842,7.45488 22.0861842,7.56195 22.0861842,7.6736 L22.0861842,17.7923 C22.0861842,21.0658 22.8037842,23.4014 24.2389842,24.7991 C25.6742842,26.1967 27.5251842,26.8955 29.7917842,26.8955 C31.1012842,26.8955 32.2092842,26.669 33.1157842,26.2161 C33.9785842,25.7819 34.7484842,25.1836 35.3823842,24.4547 L35.3823842,26.2481 C35.3823842,26.3597 35.4266842,26.4668 35.5056842,26.5457 C35.5845842,26.6247 35.6916842,26.669 35.8033842,26.669 L40.2875842,26.669 C40.3992842,26.669 40.5063842,26.6247 40.5852842,26.5457 C40.6642842,26.4668 40.7085842,26.3597 40.7085842,26.2481 L40.7085842,7.6736 C40.7085842,7.56195 40.6642842,7.45488 40.5852842,7.37593 C40.5063842,7.29698 40.3992842,7.25262 40.2875842,7.25262 L40.2875842,7.25262 Z"></path>
          <path d="M96.1903842,7.25262 C94.7550842,7.25262 93.6091842,7.4982 92.7525842,7.98934 C91.8960842,8.48048 91.1784842,9.20429 90.5997842,10.1608 L90.5997842,7.6736 C90.5997842,7.56195 90.5553842,7.45488 90.4763842,7.37593 C90.3974842,7.29698 90.2903842,7.25262 90.1787842,7.25262 L85.6944842,7.25262 C85.5828842,7.25262 85.4757842,7.29698 85.3967842,7.37593 C85.3178842,7.45488 85.2734842,7.56195 85.2734842,7.6736 L85.2734842,26.2481 C85.2734842,26.3597 85.3178842,26.4668 85.3967842,26.5457 C85.4757842,26.6247 85.5828842,26.669 85.6944842,26.669 L90.1787842,26.669 C90.2903842,26.669 90.3974842,26.6247 90.4763842,26.5457 C90.5553842,26.4668 90.5997842,26.3597 90.5997842,26.2481 L90.5997842,17.1347 C90.5997842,15.5804 90.9522842,14.3515 91.6572842,13.4478 C92.3622842,12.5441 93.4702842,12.0908 94.9812842,12.088 L96.6761842,12.088 C96.7877842,12.088 96.8948842,12.0436 96.9738842,11.9647 C97.0527842,11.8857 97.0971842,11.7787 97.0971842,11.667 L97.0971842,7.6736 C97.0971842,7.56195 97.0527842,7.45488 96.9738842,7.37593 C96.8948842,7.29698 96.7877842,7.25262 96.6761842,7.25262 L96.1903842,7.25262 Z"></path>
          <path d="M19.6889842,14.4868 C18.9386842,13.4868 17.9250842,12.7152 16.7614842,12.2581 C15.5524842,11.7669 14.0649842,11.3577 12.2991842,11.0305 C10.5624842,10.7033 9.27819419,10.4198 8.44633419,10.1801 C7.61447419,9.94045 6.97374419,9.62584 6.52414419,9.23629 C6.07116419,8.84338 5.84439419,8.29554 5.84383419,7.59279 C5.84383419,6.6105 6.22159419,5.85498 6.97711419,5.32623 C7.73263419,4.79748 8.74017419,4.53311 9.99978419,4.53311 C11.3594842,4.53311 12.4312842,4.90778 13.2833842,5.57209 C14.3619842,6.40984 14.8662842,7.23832 15.0834842,7.70309 C15.1304842,7.80201 15.2142842,7.87872 15.3168842,7.91692 C15.4195842,7.95512 15.5330842,7.9518 15.6332842,7.90768 L19.5399842,6.18587 C19.6411842,6.1424 19.7211842,6.06102 19.7630842,5.95919 C19.8049842,5.85736 19.8052842,5.74318 19.7639842,5.64113 C19.5409842,5.07428 19.2491842,4.53701 18.8950842,4.0414 C18.0008842,2.78239 16.7794842,1.79422 15.2308842,1.07687 C13.6821842,0.359517 11.9384842,0.000561306 9.99978419,0 C8.11039419,0 6.41665419,0.346326 4.91852419,1.03898 C3.42039419,1.73163 2.24951419,2.6822 1.40587419,3.89069 C0.563911195,5.09975 0.142931195,6.47214 0.142931195,8.00787 C0.142931195,9.69628 0.514235195,11.0502 1.25684419,12.0695 C1.99363419,13.0849 2.99238419,13.8811 4.14644419,14.3731 C5.33024419,14.8901 6.79104419,15.311 8.52884419,15.636 C10.2907842,15.9885 11.5938842,16.2846 12.4380842,16.5243 C13.2822842,16.764 13.9350842,17.0935 14.3964842,17.5128 C14.8628842,17.9287 15.0958842,18.49 15.0952842,19.1967 C15.0952842,20.2037 14.6742842,20.9895 13.8323842,21.5542 C12.9903842,22.1188 11.9014842,22.402 10.5655842,22.4037 C8.95319419,22.4037 7.67762419,21.9878 6.69253419,21.214 C5.68218419,20.4226 5.01450419,19.2497 4.72066419,18.6612 C4.67261419,18.5639 4.58887419,18.489 4.48691419,18.452 C4.38495419,18.415 4.27264419,18.4187 4.17339419,18.4625 L0.251544195,20.1885 C0.154629195,20.2311 0.0773267946,20.3087 0.0350402946,20.4057 C-0.00724630542,20.5028 -0.0114120254,20.6122 0.0233731946,20.7122 C0.260254195,21.3628 0.578819195,21.9807 0.971419195,22.551 C1.90262419,23.9105 3.19363419,24.9745 4.84443419,25.7429 C6.49523419,26.5113 8.37785419,26.8953 10.4922842,26.8947007 C12.4568842,26.8947007 14.2249842,26.5299 15.7966842,25.8002 C17.3682842,25.0705 18.5961842,24.0694 19.4801842,22.7969 C20.3608842,21.5255 20.8014842,20.0838 20.8020849,18.4717 C20.8026842,16.8097 20.4315842,15.4814 19.6889842,14.4868 Z"></path>
          <path d="M61.6539842,11.7479 C60.8855842,10.2363 59.8277842,9.07071 58.4806842,8.2512 C57.1335842,7.43169 55.5899842,7.0225 53.8498842,7.02361771 C52.5145842,7.02361771 51.3371842,7.288 50.3178842,7.81675 C49.4053842,8.28162 48.6018842,8.93476 47.9603842,9.73305 L47.9603842,7.66772 C47.9603842,7.55607 47.9160842,7.44899 47.8370842,7.37004 C47.7581842,7.2911 47.6510842,7.24674 47.5393842,7.24674 L43.0551842,7.24674 C42.9434842,7.24674 42.8363842,7.2911 42.7574842,7.37004 C42.6784842,7.44899 42.6341842,7.55607 42.6341842,7.66772 L42.6341842,33.5782 C42.6341842,33.6481 42.6516842,33.7168 42.6848842,33.7783 C42.7181842,33.8398 42.7661842,33.892 42.8246842,33.9302 C42.8831842,33.9685 42.9501842,33.9916 43.0198842,33.9975 C43.0894842,34.0033 43.1594842,33.9917 43.2235842,33.9638 L47.7077842,31.9877 C47.7828842,31.955 47.8466842,31.901 47.8915842,31.8326 C47.9364842,31.7641 47.9603842,31.684 47.9603842,31.6021 L47.9603842,24.2139 C49.3709842,26.0022 51.3225842,26.8961 53.8153842,26.8955 C55.5554842,26.8955 57.1043842,26.4864 58.4621842,25.668 C59.8199842,24.8496 60.8838842,23.6975 61.6539842,22.2117 C62.4235842,20.7254 62.8083842,18.9876 62.8083842,16.9983 C62.8083842,15.009 62.4235842,13.2589 61.6539842,11.7479 Z M56.0819842,20.9841 C55.2000842,22.0287 54.0415842,22.5513 52.6063842,22.5519004 C51.1710842,22.5524 50.0251842,22.036 49.1685842,21.0027 C48.3131842,19.9704 47.8851842,18.6107 47.8845842,16.9234 C47.8845842,15.2614 48.3128842,13.9201 49.1694842,12.8997 C50.0259842,11.8792 51.1716842,11.3681 52.6063842,11.3664 C54.0415842,11.3664 55.2000842,11.8764 56.0819842,12.8963 C56.9637842,13.9162 57.4043842,15.2585 57.4037848,16.9234 C57.4037848,18.5854 56.9631842,19.939 56.0819842,20.9841 L56.0819842,20.9841 Z"></path>
          <path d="M109.008184,0.452972 C108.285184,0.452972 108.194184,0.452972 107.914184,0.469812 C107.691184,0.473322 107.472184,0.515194 107.264184,0.59358 C107.086184,0.660015 106.925184,0.764633 106.792184,0.900053 C106.657184,1.03333 106.552184,1.19451 106.485184,1.37239 C106.407184,1.57909 106.365184,1.79746 106.361184,2.01817 C106.348184,2.30276 106.345184,2.39285 106.345184,3.11693 C106.345184,3.84102 106.345184,3.93026 106.361184,4.21148 C106.365184,4.4322 106.407184,4.65056 106.485184,4.85726 C106.552184,5.0352 106.657184,5.19694 106.791184,5.33198 C106.925184,5.46702 107.086184,5.57235 107.264184,5.64113 C107.471184,5.71907 107.689184,5.76121 107.910184,5.76574 C108.194184,5.77836 108.285184,5.78173 109.005184,5.78173 C109.725184,5.78173 109.819184,5.78173 110.099184,5.76574 C110.320184,5.76112 110.539184,5.71899 110.746184,5.64113 C110.923184,5.5729 111.084184,5.46835 111.218184,5.33422 C111.352184,5.20008 111.457184,5.03932 111.525184,4.86231 C111.602184,4.6555 111.644184,4.4372 111.649184,4.21653 C111.661184,3.93195 111.665184,3.84186 111.665184,3.12198 C111.665184,2.40211 111.665184,2.30781 111.649184,2.02323 C111.644184,1.80255 111.602184,1.58426 111.525184,1.37744 C111.458184,1.19956 111.353184,1.03838 111.217184,0.905105 C111.084184,0.769875 110.924184,0.665287 110.746184,0.598631 C110.539184,0.52077 110.320184,0.478909 110.099184,0.474863 C109.822184,0.45634 109.731184,0.452972 109.008184,0.452972 Z"></path>
          <path d="M106.337184,9.87786 L106.337184,26.2481 C106.337184,26.3597 106.382184,26.4668 106.461184,26.5458 C106.540184,26.6247 106.647184,26.6691 106.758184,26.6691 L111.243184,26.6691 C111.354184,26.6691 111.461184,26.6247 111.540184,26.5458 C111.619184,26.4668 111.664184,26.3597 111.664184,26.2481 L111.664184,7.90178 C111.664184,7.8319 111.646184,7.76312 111.613184,7.70166 C111.580184,7.6402 111.532184,7.58798 111.473184,7.54972 C111.415184,7.51146 111.348184,7.48836 111.278184,7.4825 C111.208184,7.47664 111.138184,7.48821 111.074184,7.51616 L106.590184,9.49224 C106.515184,9.52499 106.451184,9.57891 106.406184,9.64741 C106.361184,9.7159 106.337184,9.79598 106.337184,9.87786 L106.337184,9.87786 Z"></path>
          <path d="M98.8340842,2.84835 L98.8340842,26.2481 C98.8340842,26.3597 98.8784842,26.4668 98.9573842,26.5458 C99.0363842,26.6247 99.1433842,26.6691 99.2550842,26.6691 L103.739184,26.6691 C103.851184,26.6691 103.958184,26.6247 104.037184,26.5458 C104.116184,26.4668 104.160184,26.3597 104.160184,26.2481 L104.160184,0.87227 C104.160184,0.802388 104.143184,0.733614 104.109184,0.672151 C104.076184,0.610689 104.028184,0.558472 103.970184,0.520211 C103.911184,0.48195 103.844184,0.458848 103.774184,0.45299 C103.705184,0.447131 103.635184,0.4587 103.571184,0.486653 L99.0866842,2.46273 C99.0116842,2.49548 98.9477842,2.5494 98.9028842,2.6179 C98.8580842,2.68639 98.8341842,2.76647 98.8340842,2.84835 L98.8340842,2.84835 Z"></path>
          <path d="M139.773184,22.1738 C139.093184,22.1738 138.608184,22.0229 138.319184,21.7209 C138.030184,21.4189 137.885184,20.9277 137.885184,20.2474 L137.885184,11.7479 L141.883184,11.7479 C141.995184,11.7479 142.102184,11.7035 142.181184,11.6246 C142.260184,11.5456 142.304184,11.4385 142.304184,11.3269 L142.304184,7.67362 C142.304184,7.56197 142.260184,7.45489 142.181184,7.37594 C142.102184,7.297 141.995184,7.25264 141.883184,7.25264 L137.885184,7.25264 L137.885184,2.45853 C137.885184,2.38872 137.867184,2.32004 137.834184,2.25869 C137.800184,2.19734 137.752184,2.14524 137.694184,2.10708 C137.636184,2.06891 137.569184,2.04589 137.499184,2.04007 C137.429184,2.03425 137.359184,2.04583 137.295184,2.07375 L132.810184,4.04983 C132.735184,4.08252 132.671184,4.13631 132.626184,4.20464 C132.581184,4.27297 132.557184,4.35287 132.557184,4.4346 L132.557184,21.1163 C132.557184,24.821 134.409184,26.6719 138.114184,26.6691032 L142.112184,26.6691032 C142.224184,26.6691032 142.331184,26.6247 142.410184,26.5458 C142.489184,26.4668 142.533184,26.3597 142.533184,26.2481 L142.533184,22.5948 C142.533184,22.4832 142.489184,22.3761 142.410184,22.2971 C142.331184,22.2182 142.224184,22.1738 142.112184,22.1738 L139.773184,22.1738 Z"></path>
          <path d="M129.084184,16.3753 C127.686184,15.558 125.678184,14.9967 123.059184,14.6914 C121.824184,14.5651 120.942184,14.4528 120.414184,14.3546 C119.886184,14.2563 119.458184,14.0927 119.130184,13.8637 C118.803184,13.6364 118.638184,13.2971 118.638184,12.8433 C118.638184,12.214 118.947184,11.7105 119.565184,11.3328 C120.182184,10.955 120.994184,10.7661 122.000184,10.7661 C122.935184,10.7557 123.855184,10.9971 124.664184,11.465 C125.506184,11.9466 125.967184,12.4416 126.192184,12.7388 C126.249184,12.8144 126.330184,12.8684 126.421184,12.8923 C126.513184,12.9161 126.610184,12.9083 126.697184,12.8702 L130.025184,11.4035 C130.078184,11.3804 130.125184,11.3466 130.165184,11.3044 C130.204184,11.2621 130.234184,11.2123 130.253184,11.1579 C130.273184,11.1035 130.280184,11.0457 130.276184,10.9882 C130.272184,10.9306 130.256184,10.8745 130.230184,10.8234 C129.789184,9.97357 129.130184,9.24921 128.252184,8.65029 C126.628184,7.54228 124.495184,6.97564 121.853184,6.95038 C120.216184,6.95038 118.768184,7.21475 117.509184,7.7435 C116.251184,8.27225 115.275184,9.0216 114.581184,9.99153 C113.888184,10.9615 113.542184,12.0757 113.543182,13.3341 C113.543182,14.5926 113.883184,15.6001 114.563184,16.3567 C115.243184,17.1123 116.149184,17.6663 117.282184,18.0188 C118.415184,18.3713 119.838184,18.6609 121.551184,18.8877 C122.807184,19.0375 123.714184,19.1686 124.271184,19.2809 C124.825184,19.3937 125.254184,19.5772 125.556184,19.8281 C125.858184,20.079 126.009184,20.4579 126.009184,20.9614 C126.009184,21.6417 125.682184,22.1643 125.027184,22.5291 C124.373184,22.894 123.479184,23.0767 122.345184,23.0773 C121.161184,23.0773 120.221184,22.7683 119.437184,22.2841 C118.510184,21.7108 118.012184,21.1121 117.780184,20.7686 C117.724184,20.6872 117.642184,20.6276 117.548184,20.6004 C117.453184,20.5732 117.352184,20.58 117.262184,20.6196 L113.915184,22.0905 C113.864184,22.1131 113.817184,22.1458 113.779184,22.1867 C113.740184,22.2275 113.710184,22.2757 113.690184,22.3284 C113.671184,22.381 113.662184,22.4371 113.664184,22.4933 C113.666184,22.5495 113.680184,22.6046 113.704184,22.6554 C114.150184,23.6097 114.850184,24.425 115.804184,25.1013 C117.488184,26.2975 119.678184,26.8956 122.376184,26.8956 C124.116184,26.8956 125.646184,26.6373 126.965184,26.1209 C128.285184,25.6045 129.318184,24.8681 130.066184,23.9116 C130.808184,22.9541 131.180184,21.846 131.180184,20.5876 C131.180184,18.5983 130.481184,17.1942 129.084184,16.3753 Z"></path>
          </g>
        </svg>

<svg viewBox="0 0 143 34" xmlns="http://www.w3.org/2000/svg"><g fill="none" fill-rule="evenodd"><path d="m65.2617842 11.7293c.7868-1.4673 1.9817-2.67533 3.4403-3.4781 1.4734-.81839 3.1795-1.22758 5.1182-1.22758 1.9646 0 3.696.38393 5.1941 1.1518 1.4551.72861 2.6735 1.85528 3.5135 3.24908.8419 1.3977 1.2764 3.0409 1.3034523 4.9297.0024477.4843-.0282523.9681-.0918523 1.4482-.0138.1016-.0641.1947-.1416.2618s-.1769.1037-.2794.1028h-13.7307v.1515c.1257 1.4106.579 2.5186 1.3598 3.3241.7808.8054 1.8509 1.2085 3.2104 1.209 1.0827 0 1.9831-.2329 2.701-.6988.6381-.4144 1.1097-1.0404 1.332-1.7681.0267-.0849.0796-.1592.1511-.2122.0716-.0529.1581-.0818.2471-.0825h4.4262c.0633-.0002.1259.0139.183.0412.0571.0274.1073.0673.1469.1167.0396.0495.0675.1072.0816.1689.0142.0617.0143.1259.0002.1876-.2374 1.078-.7063 2.0915-1.3741 2.9705-.7808 1.0333-1.8133 1.8455-3.0975 2.4366-1.2843.591-2.7575.8869-4.4195.8874-2.1666 0-4.0366-.403-5.61-1.209-1.5292-.7634-2.7929-1.9699-3.6263-3.4622-.8419-1.4975-1.2629053-3.2415-1.2629053-5.2319-.0016947-2.0129.4066053-3.7683 1.2250053-5.2665zm13.2407 2.9654c-.1768-1.1838-.6618-2.0967-1.4549-2.7389-.7932-.6421-1.794-.9632-3.0025-.9632-1.1585 0-2.1343.3337-2.9274 1.0011-.7932.6674-1.2655 1.5677-1.4171 2.701z"/><path d="m40.2875842 7.25262h-4.4842c-.1117 0-.2188.04436-.2977.12331-.079.07895-.1233.18602-.1233.29767v9.1361c0 1.7883-.3649 3.1798-1.0946 4.1744-.7297.9947-1.7625 1.4934-3.0984 1.4962-1.2837 0-2.2343-.4471-2.8517-1.3412-.6174-.8942-.9262-2.2225-.9262-3.985v-9.4805c0-.11165-.0443-.21872-.1233-.29767-.0789-.07895-.186-.12331-.2976-.12331h-4.4835c-.1116 0-.2187.04436-.2976.12331-.079.07895-.1233.18602-.1233.29767v10.1187c0 3.2735.7176 5.6091 2.1528 7.0068 1.4353 1.3976 3.2862 2.0964 5.5528 2.0964 1.3095 0 2.4175-.2265 3.324-.6794.8628-.4342 1.6327-1.0325 2.2666-1.7614v1.7934c0 .1116.0443.2187.1233.2976.0789.079.186.1233.2977.1233h4.4842c.1117 0 .2188-.0443.2977-.1233.079-.0789.1233-.186.1233-.2976v-18.5745c0-.11165-.0443-.21872-.1233-.29767-.0789-.07895-.186-.12331-.2977-.12331z"/><path d="m96.1903842 7.25262c-1.4353 0-2.5812.24558-3.4378.73672-.8565.49114-1.5741 1.21495-2.1528 2.17146v-2.4872c0-.11165-.0444-.21872-.1234-.29767-.0789-.07895-.186-.12331-.2976-.12331h-4.4843c-.1116 0-.2187.04436-.2977.12331-.0789.07895-.1233.18602-.1233.29767v18.5745c0 .1116.0444.2187.1233.2976.079.079.1861.1233.2977.1233h4.4843c.1116 0 .2187-.0443.2976-.1233.079-.0789.1234-.186.1234-.2976v-9.1134c0-1.5543.3525-2.7832 1.0575-3.6869s1.813-1.357 3.324-1.3598h1.6949c.1116 0 .2187-.0444.2977-.1233.0789-.079.1233-.186.1233-.2977v-3.9934c0-.11165-.0444-.21872-.1233-.29767-.079-.07895-.1861-.12331-.2977-.12331z"/><path d="m19.6889842 14.4868c-.7503-1-1.7639-1.7716-2.9275-2.2287-1.209-.4912-2.6965-.9004-4.4623-1.2276-1.7367-.3272-3.02099001-.6107-3.85285001-.8504-.83186-.23965-1.47259-.55426-1.92219-.94381-.45298-.39291-.67975-.94075-.68031-1.6435 0-.98229.37776-1.73781 1.13328-2.26656s1.76306-.79312 3.02267-.79312c1.35970001 0 2.43150001.37467 3.28360001 1.03898 1.0786.83775 1.5829 1.66623 1.8001 2.131.047.09892.1308.17563.2334.21383.1027.0382.2162.03488.3164-.00924l3.9067-1.72181c.1012-.04347.1812-.12485.2231-.22668s.0422-.21601.0009-.31806c-.223-.56685-.5148-1.10412-.8689-1.59973-.8942-1.25901-2.1156-2.24718-3.6642-2.96453-1.5487-.717353-3.2924-1.07630869-5.23110001-1.07687-1.88939 0-3.58313.346326-5.08126 1.03898-1.49813.69265-2.66901 1.64322-3.51265 2.85171-.84196299 1.20906-1.26294299 2.58145-1.26294299 4.11718 0 1.68841.371304 3.04233 1.11391299 4.06163.73679 1.0154 1.73554 1.8116 2.8896 2.3036 1.1838.517 2.6446.9379 4.3824 1.2629 1.76194001.3525 3.06504001.6486 3.90924001.8883s1.497.5692 1.9584.9885c.4664.4159.6994.9772.6988 1.6839 0 1.007-.421 1.7928-1.2629 2.3575-.842.5646-1.9309.8478-3.2668.8495-1.61239001 0-2.88796001-.4159-3.87305001-1.1897-1.01035-.7914-1.67803-1.9643-1.97187-2.5528-.04805-.0973-.13179-.1722-.23375-.2092s-.21427-.0333-.31352.0105l-3.92184999 1.726c-.096915.0426-.17421741.1202-.21650391.2172-.0422866.0971-.04645232.2065-.0116671.3065.23688101.6506.55544601 1.2685.94804601 1.8388.93120499 1.3595 2.22221499 2.4235 3.87301499 3.1919s3.53342 1.1524 5.64785001 1.1518007c1.9646 0 3.7327-.3648007 5.3044-1.0945007 1.5716-.7297 2.7995-1.7308 3.6835-3.0033.8807-1.2714 1.3213-2.7131 1.3219007-4.3252.0005993-1.662-.3705007-2.9903-1.1131007-3.9849z"/><path d="m61.6539842 11.7479c-.7684-1.5116-1.8262-2.67719-3.1733-3.4967s-2.8907-1.2287-4.6308-1.22758229c-1.3353 0-2.5127.26438229-3.532.79313229-.9125.46487-1.716 1.11801-2.3575 1.9163v-2.06533c0-.11165-.0443-.21873-.1233-.29768-.0789-.07894-.186-.1233-.2977-.1233h-4.4842c-.1117 0-.2188.04436-.2977.1233-.079.07895-.1233.18603-.1233.29768v25.91048c0 .0699.0175.1386.0507.2001.0333.0615.0813.1137.1398.1519.0585.0383.1255.0614.1952.0673.0696.0058.1396-.0058.2037-.0337l4.4842-1.9761c.0751-.0327.1389-.0867.1838-.1551.0449-.0685.0688-.1486.0688-.2305v-7.3882c1.4106 1.7883 3.3622 2.6822 5.855 2.6816 1.7401 0 3.289-.4091 4.6468-1.2275s2.4217-1.9705 3.1918-3.4563c.7696-1.4863 1.1544-3.2241 1.1544-5.2134s-.3848-3.7394-1.1544-5.2504zm-5.572 9.2362c-.8819 1.0446-2.0404 1.5672-3.4756 1.5678004-1.4353.0004996-2.5812-.5159004-3.4378-1.5492004-.8554-1.0323-1.2834-2.392-1.284-4.0793 0-1.662.4283-3.0033 1.2849-4.0237.8565-1.0205 2.0022-1.5316 3.4369-1.5333 1.4352 0 2.5937.51 3.4756 1.5299.8818 1.0199 1.3224 2.3622 1.3218006 4.0271 0 1.662-.4406006 3.0156-1.3218006 4.0607z"/><path d="m109.008184.452972c-.723 0-.814 0-1.094.01684-.223.00351-.442.045382-.65.123768-.178.066435-.339.171053-.472.306473-.135.133277-.24.294457-.307.472337-.078.2067-.12.42507-.124.64578-.013.28459-.016.37468-.016 1.09876 0 .72409 0 .81333.016 1.09455.004.22072.046.43908.124.64578.067.17794.172.33968.306.47472s.295.24037.473.30915c.207.07794.425.12008.646.12461.284.01262.375.01599 1.095.01599s.814 0 1.094-.01599c.221-.00462.44-.04675.647-.12461.177-.06823.338-.17278.472-.30691.134-.13414.239-.2949.307-.47191.077-.20681.119-.42511.124-.64578.012-.28458.016-.37467.016-1.09455 0-.71987 0-.81417-.016-1.09875-.005-.22068-.047-.43897-.124-.64579-.067-.17788-.172-.33906-.308-.472335-.133-.13523-.293-.239818-.471-.306474-.207-.077861-.426-.119722-.647-.123768-.277-.018523-.368-.021891-1.091-.021891z"/><path d="m106.337184 9.87786v16.37024c0 .1116.045.2187.124.2977.079.0789.186.1233.297.1233h4.485c.111 0 .218-.0444.297-.1233.079-.079.124-.1861.124-.2977v-18.34632c0-.06988-.018-.13866-.051-.20012s-.081-.11368-.14-.15194c-.058-.03826-.125-.06136-.195-.06722s-.14.00571-.204.03366l-4.484 1.97608c-.075.03275-.139.08667-.184.15517-.045.06849-.069.14857-.069.23045z"/><path d="m98.8340842 2.84835v23.39975c0 .1116.0444.2187.1233.2977.079.0789.186.1233.2977.1233h4.4840998c.112 0 .219-.0444.298-.1233.079-.079.123-.1861.123-.2977v-25.37583c0-.069882-.017-.138656-.051-.200119-.033-.061462-.081-.113679-.139-.15194-.059-.038261-.126-.061363-.196-.067221-.069-.005859-.139.00571-.203.033663l-4.4844998 1.976077c-.075.03275-.1389.08667-.1838.15517-.0448.06849-.0687.14857-.0688.23045z"/><path d="m139.773184 22.1738c-.68 0-1.165-.1509-1.454-.4529s-.434-.7932-.434-1.4735v-8.4995h3.998c.112 0 .219-.0444.298-.1233.079-.079.123-.1861.123-.2977v-3.65328c0-.11165-.044-.21873-.123-.29768-.079-.07894-.186-.1233-.298-.1233h-3.998v-4.79411c0-.06981-.018-.13849-.051-.19984-.034-.06135-.082-.11345-.14-.15161-.058-.03817-.125-.06119-.195-.06701s-.14.00576-.204.03368l-4.485 1.97608c-.075.03269-.139.08648-.184.15481s-.069.14823-.069.22996v16.6817c0 3.7047 1.852 5.5556 5.557 5.5528032h3.998c.112 0 .219-.0444032.298-.1233032.079-.079.123-.1861.123-.2977v-3.6533c0-.1116-.044-.2187-.123-.2977-.079-.0789-.186-.1233-.298-.1233z"/><path d="m129.084184 16.3753c-1.398-.8173-3.406-1.3786-6.025-1.6839-1.235-.1263-2.117-.2386-2.645-.3368-.528-.0983-.956-.2619-1.284-.4909-.327-.2273-.492-.5666-.492-1.0204 0-.6293.309-1.1328.927-1.5105.617-.3778 1.429-.5667 2.435-.5667.935-.0104 1.855.231 2.664.6989.842.4816 1.303.9766 1.528 1.2738.057.0756.138.1296.229.1535.092.0238.189.016.276-.0221l3.328-1.4667c.053-.0231.1-.0569.14-.0991.039-.0423.069-.0921.088-.1465.02-.0544.027-.1122.023-.1697-.004-.0576-.02-.1137-.046-.1648-.441-.84983-1.1-1.57419-1.978-2.17311-1.624-1.10801-3.757-1.67465-6.399-1.69991-1.637 0-3.085.26437-4.344.79312-1.258.52875-2.234 1.2781-2.928 2.24803-.693.96997-1.039 2.08417-1.038002 3.34257 0 1.2585.340002 2.266 1.020002 3.0226.68.7556 1.586 1.3096 2.719 1.6621s2.556.6421 4.269.8689c1.256.1498 2.163.2809 2.72.3932.554.1128.983.2963 1.285.5472s.453.6298.453 1.1333c0 .6803-.327 1.2029-.982 1.5677-.654.3649-1.548.5476-2.682.5482-1.184 0-2.124-.309-2.908-.7932-.927-.5733-1.425-1.172-1.657-1.5155-.056-.0814-.138-.141-.232-.1682-.095-.0272-.196-.0204-.286.0192l-3.347 1.4709c-.051.0226-.098.0553-.136.0962-.039.0408-.069.089-.089.1417-.019.0526-.028.1087-.026.1649s.016.1113.04.1621c.446.9543 1.146 1.7696 2.1 2.4459 1.684 1.1962 3.874 1.7943 6.572 1.7943 1.74 0 3.27-.2583 4.589-.7747 1.32-.5164 2.353-1.2528 3.101-2.2093.742-.9575 1.114-2.0656 1.114-3.324 0-1.9893-.699-3.3934-2.096-4.2123z"/></g></svg>
